svg/fluentui-system-icons/ic_fluent_calendar_shield_16_filled.svg

<svg width="16" height="16" viewBox="0 0 16 16" fill="none" xmlns="http://www.w3.org/2000/svg">
<path d="M8.23672 14H4.5C3.11929 14 2 12.8807 2 11.5V6H9.87534C9.3739 6.3519 8.87035 6.5 8.3511 6.5C7.54166 6.5 7.0011 7.1817 7.0011 7.875V10.134L7.00519 10.3889L7.00545 10.3971C7.04345 11.5699 7.33199 12.6319 7.90649 13.537C8.00844 13.6976 8.11859 13.852 8.23672 14ZM11.5039 6.00001C11.4136 5.99936 11.323 6.03595 11.2541 6.10978C10.3839 7.04177 9.42144 7.5 8.35098 7.5C8.15768 7.5 8.00098 7.66789 8.00098 7.875V10.1259L8.0048 10.3647C8.03808 11.392 8.28827 12.2726 8.75066 13.0011C8.9878 13.3747 9.28075 13.7083 9.62887 14.0011C10.1108 14.4065 10.6985 14.7337 11.3903 14.9808C11.4622 15.0064 11.5398 15.0064 11.6117 14.9808C13.8521 14.1806 15.001 12.5397 15.001 10.1259V7.875L14.9939 7.79942C14.9613 7.62854 14.8202 7.5 14.651 7.5C14.4301 7.5 14.2138 7.48053 14.0021 7.44146C14.0014 7.44133 14.0007 7.4412 14 7.44107C13.6556 7.3773 13.3232 7.26162 13.0022 7.09352C12.5639 6.86399 12.1468 6.53667 11.7494 6.11008C11.6816 6.03731 11.5928 6.00061 11.5039 6.00001ZM14 5V4.5C14 3.11929 12.8807 2 11.5 2H4.5C3.11929 2 2 3.11929 2 4.5V5H14Z" fill="#212121"/>
</svg>

<svg xmlns="http://www.w3.org/2000/svg" width="16" height="16"><path d="M8.237 14H4.5A2.5 2.5 0 0 1 2 11.5V6h7.875c-.501.352-1.005.5-1.524.5-.81 0-1.35.682-1.35 1.375v2.259l.004.255v.008c.038 1.173.327 2.235.901 3.14.102.16.213.315.33.463Zm3.267-8a.34.34 0 0 0-.25.11c-.87.932-1.833 1.39-2.903 1.39-.193 0-.35.168-.35.375v2.25l.004.24c.033 1.027.283 1.908.746 2.636.237.374.53.707.878 1 .482.405 1.07.733 1.761.98.072.025.15.025.222 0 2.24-.8 3.389-2.441 3.389-4.855V7.875l-.007-.076a.357.357 0 0 0-.343-.299c-.22 0-.437-.02-.649-.059H14a3.523 3.523 0 0 1-.998-.347 4.716 4.716 0 0 1-1.253-.984.338.338 0 0 0-.245-.11ZM14 5v-.5A2.5 2.5 0 0 0 11.5 2h-7A2.5 2.5 0 0 0 2 4.5V5h12Z"/></svg>
